!!!COM: Gonzaga, Francisca
!!!CDT: 1847/10/17-1935/02/28
!!!OTL: Tambyquerere
**kern	**kern	**dynam
*part1	*part1	*part1
*staff2	*staff1	*
*I"Piano	*	*
*clefF4	*clefG2	*
*k[b-]	*k[b-]	*
*M2/4	*M2/4	*
=1	=1	=1
*F:	*F:	*
4D-X	16r	p
.	8A-XL 8d-X 8f	.
.	16A-Jk 16d- 16f	.
16r	8A- 8d- 8f	.
8AA-XL	.	.
.	8r	.
16BB-Jk	.	.
=	=	=
[4C	16r	.
.	8AL 8c 8f	.
.	16AJk 16c 16f	.
4C]	16AKL 16c 16f	.
.	8A 8c 8g	.
.	16AJk 16c 16f	.
=	=	=
8.CCL	16GKL 16B- 16f	.
.	8G 8B- 8e	.
16GGJk	16GJk 16B- 16d	.
8.CL	8GL 8B- 8f	.
.	8GJ 8B- 8e	.
16CCJk	.	.
=	=	=
4FF	16FKL 16A 16d	.
.	8F 8A 8c	.
.	16FJk 16Bn	.
4FF	8FL 8A 8d	.
.	8FJ 8A 8c	.
=	=	=
4D-X	16r	.
.	8A-XL 8d-X 8f	.
.	16A-Jk 16d- 16f	.
16r	8A- 8d- 8f	.
8AA-XL	.	.
.	8r	.
16BB-Jk	.	.
!!linebreak:original
=	=	=
[4C	16r	.
.	8AL 8c 8f	.
.	16AJk 16c 16f	.
4C]	16AKL 16c 16f	.
.	8A 8c 8g	.
.	16AJk 16c 16f	.
=	=	=
4CC	16GKL 16B- 16f	.
.	8G 8B- 8e	.
.	16GJk 16B- 16d	.
8CL	8GL 8B- 8e	.
8CCJ	8B-:J 8e: 8cc:	.
=	=	=
8.FFL	4A: 4f: [4cc:	.
16AAJk	.	.
16CLL	4cc]	.
16F	.	.
16A	.	.
16cJJ	.	.
=	=	=
16FKL	4ddd-X	f
8A-X 8d-X 8f	.	.
16A-Jk 16d- 16f	.	.
8A-L 8d- 8f	16r	.
.	8aa-XL	.
8A-J 8d- 8f	.	.
.	16bb-Jk	.
=	=	=
16CKL	4aa: 4ccc:	.
8A 8c 8f	.	.
16AJk 16c 16f	.	.
8AL 8c 8f	16r	.
.	8gggL	.
8AJ 8c 8f	.	.
.	16fffJk	.
=	=	=
.	(16qqfff/LL	.
.	16qqggg/JJ	.
16B-KL	16fffKL)	.
8c 8e 8g	8eee	.
16cJk 16e 16g	16dddJk	.
8cL 8e 8g	8fffL	.
8B-J	8eeeJ	.
!!linebreak:original
=	=	=
.	(16qqddd/LL	.
.	16qqeee/JJ	.
16AKL	16dddKL)	.
8c 8f 8a	8ccc	.
16cJk 16f 16a	16bbnJk	.
8cL 8f 8a	16dddLL	.
.	16ccc	.
8cJ 8f 8a	16aa	.
.	16ffJJ	.
=	=	=
*^	*	*
16r	2D-X 2A-X	4dd-X	p
8d-XL 8f	.	.	.
16d-Jk 16f	.	.	.
8d-L 8f	.	16r	.
.	.	(16aa-XLL	.
8d-J 8f	.	16a-X	.
.	.	16b-JJ)	.
*v	*v	*	*
=	=	=
16CKL	4a 4cc	.
8A 8c 8f	.	.
16AJk 16c 16f	.	.
8AL 8c 8f	16r	.
.	8ggL	.
8AJ 8c 8f	.	.
.	16ffJk	.
=	=	=
16CCKL	16eeKL	.
8B- 8c 8e	8dd	.
16B-Jk 16c 16e	16ccJk	.
8B-L 8c 8e	8cccL	.
8CCJ 8C	8b-J 8ee	.
=	=	=
8FFL	8aL 8ff	.
!	!LO:TX:a:t=Fine	!
8FFFJ	8ffJ 8aa 8ccc 8fff	.
*C:	*C:	*
4r	16r	.
.	(8ffL	.
.	16ggJk)	.
!!linebreak:original
=||	=||	=||
*k[]	*k[]	*
16GGKL	16b^:KL 16ff: 16aa:	f
8G 8B 8f	8gg	.
16GJk 16B 16f	16ffJk	.
.	(16qqee/LL	.
.	16qqff/JJ	.
8GL 8B 8f	8eeL)	.
8FJ 8B	8ddJ	.
=	=	=
.	(8qee/	.
16EKL 16c	8gg^L)	.
8G 8c 8e	.	.
.	8eeJ	.
16GJk 16c 16e	.	.
8GL 8c 8e	16r	.
.	(16ccLL	.
8GJ 8c 8e	16dd	.
.	16eeJJ)	.
=	=	=
.	(16qqdd/LL	.
.	16qqee/JJ	.
16F#XKL	16ddKL)	.
8c 8d	8a	.
16cJk 16d	16bJk	.
8cL 8d	8ddL	.
8F#J	8aJ	.
=	=	=
.	(8qb/	.
16FKL	8ddL)	.
8G 8B 8d	.	.
.	8gJ	.
16GJk 16B 16d	.	.
8GL 8B 8d	16r	.
.	8ffL	.
8GJ 8B 8d	.	.
.	16ggJk	.
=	=	=
16GGKL	16aaKL	.
8F 8G 8B	8bb	.
16FJk 16G 16B	16cccJk	.
8FL 8G 8B	8eeeL	.
8FJ 8G 8B	8dddJ	.
=	=	=
.	(16qqccc/LL	.
.	16qqddd/JJ	.
16GGKL	16cccKL)	.
8E 8G 8c	8aa	.
16EJk 16G 16c	16ggJk	.
8EL 8G 8c	8eeL	.
8EJ 8G 8c	8ccJ	.
!!linebreak:original
=	=	=
*^	*	*
16r	4C 4F	16aKL	.
8AL 8c	.	8b	.
16AJk 16c	.	16ccJk	.
8DL 8F 8G	4ryy	8ddL	.
8BJ	.	8gJ	.
*v	*v	*	*
=	=	=
(16ELL 16G 16c	[4e [4g	.
16F#X	.	.
16A	.	.
16GJJ	.	.
16ELL	4e] 4g]	.
16C	.	.
16AA	.	.
16GGJJ)	.	.
=	=	=
16GGGKL	16b:KL 16ff: 16aa:	.
8G 8B 8f	8gg	.
16GJk 16B 16f	16ffJk	.
.	(16qqee/LL	.
.	16qqff/JJ	.
8GL 8B 8f	8eeL)	.
8FJ 8B	8ddJ	.
=	=	=
.	(8qee/	.
16EKL 16c	8ggL)	.
8G 8c 8e	.	.
.	8eeJ	.
16GJk 16c 16e	.	.
8GL 8c 8e	16r	.
.	(16ccLL	.
8GJ 8c 8e	16dd	.
.	16eeJJ)	.
=	=	=
.	(16qqdd/LL	.
.	16qqee/JJ	.
16F#XKL	16ddKL)	.
8c 8d	8a	.
16cJk 16d	16bJk	.
8cL 8d	8ddL	.
8F#J	8aJ	.
=	=	=
.	(8qb/	.
16FKL	8dd^L)	.
8G 8B 8d	.	.
.	8gJ	.
16GJk 16B 16d	.	.
8GL 8B 8d	16r	.
.	8ffL	.
8GJ 8B 8d	.	.
.	16ggJk	.
!!pagebreak:original
=	=	=
16GGKL	16aaKL	.
8F 8G 8B	8bb	.
16FJk 16G 16B	16cccJk	.
8FL 8G 8B	8eeeL	.
8FJ 8G 8B	8dddJ	.
=	=	=
.	(16qqccc/LL	.
.	16qqddd/JJ	.
16GGKL	16cccKL)	.
8E 8G 8c	8aa	.
16EJk 16G 16c	16ggJk	.
8EL 8G 8c	8eeL	.
8EJ 8G 8c	8ccJ	.
=	=	=
*^	*	*
16r	4C 4F	16fKL 16a	.
8AL 8c	.	8b	.
16AJk 16c	.	16ccJk	.
8DL 8F 8G	4ryy	8bL 8dd	.
8BJ	.	8gJ	.
*v	*v	*	*
=	=	=
4C 4E 4G 4c	4e 4cc	.
8r	8r	.
8f	8b-X 8dd	.
=||	=||	=||
*F:	*F:	*
*k[b-]	*k[b-]	*
4.e	8b-L 8cc	.
.	8ggJ	.
.	8ggL	.
8f	8b-J 8dd	.
=	=	=
[4e	8b-L 8cc	.
.	8ggJ	.
8e]	8cc	.
8r;	8r;	.
=||	=||	=||
4D-X	16r	p
.	8A-XL 8d-X 8f	.
.	16A-Jk 16d- 16f	.
16r	8A- 8d- 8f	.
8AA-XL	.	.
.	8r	.
16BB-Jk	.	.
!!linebreak:original
=	=	=
[4C	16r	.
.	8AL 8c 8f	.
.	16AJk 16c 16f	.
4C]	16AKL 16c 16f	.
.	8A 8c 8g	.
.	16AJk 16c 16f	.
=	=	=
8.CCL	16GKL 16B- 16f	.
.	8G 8B- 8e	.
16GGJk	16GJk 16B- 16d	.
8.CL	8GL 8B- 8f	.
.	8GJ 8B- 8e	.
16CCJk	.	.
=	=	=
[4FF	16FKL 16A 16d	.
.	8F 8A 8c	.
.	16FJk 16Bn	.
4FF]	8FL 8A 8d	.
.	8FJ 8A 8c	.
=	=	=
4D-X	16r	.
.	8A-XL 8d-X 8f	.
.	16A-Jk 16d- 16f	.
16r	8A- 8d- 8f	.
8AA-XL	.	.
.	8r	.
16BB-Jk	.	.
=	=	=
[4C	16r	.
.	8AL 8c 8f	.
.	16AJk 16c 16f	.
4C]	16AKL 16c 16f	.
.	8A 8c 8g	.
.	16AJk 16c 16f	.
=	=	=
4CC	16GKL 16B- 16f	.
.	8G 8B- 8e	.
.	16GJk 16B- 16d	.
8CL	8GL 8B- 8e	.
8CCJ	8B-:J 8e: 8cc:	.
!!linebreak:original
=	=	=
8.FFL	4A: 4f: [4cc:	.
16AAJk	.	.
(16CLL	4cc]	.
16F	.	.
16A	.	.
16cJJ)	.	.
=	=	=
16FKL	4ddd-X	f
8A-X 8d-X 8f	.	.
16A-Jk 16d- 16f	.	.
8A-L 8d- 8f	16r	.
.	8aa-XL	.
8A-J 8d- 8f	.	.
.	16bb-Jk	.
=	=	=
16CKL	4aa: 4ccc:	.
8A 8c 8f	.	.
16AJk 16c 16f	.	.
8AL 8c 8f	16r	.
.	8gggL	.
8AJ 8c 8f	.	.
.	16fffJk	.
=	=	=
.	(16qqfff/LL	.
.	16qqggg/JJ	.
16B-KL	16fffKL)	.
8c 8e 8g	8eee	.
16cJk 16e 16g	16dddJk	.
8cL 8e 8g	8fffL	.
8B-J	8eeeJ	.
=	=	=
.	(16qqddd/LL	.
.	16qqeee/JJ	.
16AKL	16dddKL)	.
8c 8f 8a	8ccc	.
16cJk 16f 16a	16bbnJk	.
8cL 8f 8a	16dddLL	.
.	16ccc	.
8cJ 8f 8a	16aa	.
.	16ffJJ	.
!!linebreak:original
=	=	=
*^	*	*
16r	2D-X 2A-X	4dd-X	p
8d-XL 8f-X	.	.	.
16d-Jk 16f-	.	.	.
8d-L 8f-	.	16r	.
.	.	(16aa-XLL	.
8d-J 8f-	.	16a-X	.
.	.	16b-JJ)	.
*v	*v	*	*
=	=	=
16CKL	4a 4cc	.
8A 8c 8f	.	.
16AJk 16c 16f	.	.
8AL 8c 8f	16r	.
.	8ggL	.
8AJ 8c 8f	.	.
.	16ffJk	.
=	=	=
16CCKL	16eeKL	.
8B- 8c 8e	8dd	.
16B-Jk 16c 16e	16ccJk	.
8B-L 8c 8e	8cccL	.
8CCJ 8C	8b-J 8ee	.
=	=	=
8FFL	8aL 8ff	.
8FFFJ	8ffJ 8aa 8ccc 8fff	.
*B-:	*B-:	*
4F	4r	.
=||	=||	=||
*k[b-e-]	*k[b-e-]	*
4BB- 4B-	16r	.
.	8dL 8f 8b-	.
.	16dJk 16f 16b-	.
16r	8d 8f 8b-	.
8FL	.	.
.	8r	.
16GJk	.	.
=	=	=
4C	16r	.
.	8AL 8e- 8f	.
.	16AJk 16e- 16f	.
16r	8A 8e- 8f	.
8E-L	.	.
.	8r	.
16FJk	.	.
!!linebreak:original
=	=	=
4FF	16r	.
.	8AL 8e- 8f	.
.	16AJk 16e- 16f	.
16r	8A 8e- 8f	.
8E-L	.	.
.	8r	.
16FJk	.	.
=	=	=
4BB-	16r	.
.	8B-L 8d 8f	.
.	16B-Jk 16d 16f	.
8r	8B- 8d 8f	.
8F	8r	.
=	=	=
4BB- 4B-	16r	.
.	8dL 8f 8b-	.
.	16dJk 16f 16b-	.
16r	8d 8f 8b-	.
8cL	.	.
.	8r	.
16B-Jk	.	.
=	=	=
16CKL 16A	16cLL [16f [16a	.
8d	16fJJ] 16a]	.
.	8r	.
16cJk	.	.
16AKL	4r	.
8F	.	.
16DJk	.	.
=	=	=
4C	16r	.
.	8EnL 8B- 8c	.
.	16EJk 16B- 16c	.
16r	8E 8B- 8c	.
8DL	.	.
.	8r	.
16EnJk	.	.
=	=	=
16GKL	16r	.
8F	8A 8e- 8f	.
16EnJk	16r	.
(16E-XLL	4r	.
16C	.	.
16AA	.	.
16FFJJ)	.	.
!!linebreak:original
=	=	=
4BB-	16r	.
.	8dL 8f 8b-	.
.	16dJk 16f 16b-	.
16r	8d 8f 8b-	.
8FL	.	.
.	8r	.
16GJk	.	.
=	=	=
4C	16r	.
.	8AL 8e- 8f	.
.	16AJk 16e- 16f	.
16r	8A 8e- 8f	.
8E-L	.	.
.	8r	.
16FJk	.	.
=	=	=
4FF	16r	.
.	8AL 8e- 8f	.
.	16AJk 16e- 16f	.
16r	8A 8e- 8f	.
8E-L	.	.
.	8r	.
16FJk	.	.
=	=	=
4BB-	16r	.
.	8B-L 8d 8f	.
.	16B-Jk 16d 16f	.
8r	8B- 8d 8f	.
8F	8r	.
=	=	=
8.B-L	16r	.
.	8d 8f 8b-	.
16AJk	16r	.
(16cLL	4r	.
16B-	.	.
16F	.	.
16DJJ)	.	.
=	=	=
4G-X	16r	.
.	8B-L 8e- 8g-X	.
.	16B-Jk 16e- 16g-	.
16r	8B- 8e- 8g-	.
8BB-L	.	.
.	8r	.
16CJk	.	.
!!pagebreak:original
=	=	=
8.DL	16r	.
.	8B- 8d 8f	.
16FJk	16r	.
8.FFL	16r	.
.	8A 8e- 8f	.
16FJk	16r	.
=	=	=
8BB-L	8r	.
8DJ	8B- 8d 8f	.
8GL	4r	.
8G-XJ	.	.
=	=	=
16FKL	4b-^ 4dd 4ff 4bb-	f
8B- 8d 8f	.	.
16B-Jk 16d 16f	.	.
16DKL	16r	.
8B- 8d 8f	8ffL	.
16B-Jk 16d 16f	16ggJk	.
=	=	=
16CKL	4a^ 4cc	.
8A 8c 8e- 8f	.	.
16AJk 16c 16e- 16f	.	.
16FKL	16r	.
8A 8c 8e- 8f	8ee-L	.
16AJk 16c 16e- 16f	16ffJk	.
=	=	=
16FFKL	4f^	.
8A 8c 8e- 8f	.	.
16AJk 16c 16e- 16f	.	.
16FKL	16r	.
8A 8c 8e- 8f	8ee-L	.
16AJk 16c 16e- 16f	16ffJk	.
=	=	=
16BB-KL	4d 4b-	.
8F 8B- 8d	.	.
16FJk 16B- 16d	.	.
8DL	8r	.
8FJ 8B- 8d	8ff	.
!!linebreak:original
=	=	=
16DKL	4dd 4ff 4bb-	.
8F 8B- 8d	.	.
16FJk 16B- 16d	.	.
8FL 8B- 8d	16r	.
.	8cccL	.
8FJ 8B- 8d	.	.
.	16bb-Jk	.
=	=	=
16CKL	16ccKL 16ff 16aa	.
8F 8A 8c	8ff 8aa 8ddd	.
16FJk 16A 16c	16ffJk 16aa 16ccc	.
8FL 8A 8c	16ccKL 16ff 16aa	.
.	8a 8cc 8ff	.
8FJ 8A 8c	.	.
.	16fJk 16a 16dd	.
=	=	=
16CKL	4en 4b- 4cc	.
8G 8B- 8c	.	.
16GJk 16B- 16c	.	.
8GL 8B- 8c	16r	.
.	8ddL	.
8GJ 8B- 8c	.	.
.	16eenJk	.
=	=	=
16FFKL	16ggKL	.
8A 8c 8e- 8f	8ff	.
16AJk 16c 16e- 16f	16eenJk	.
8FFL	16ee-XLL	.
.	16cc	.
8E-J 8F 8A	16a	.
.	16fJJ	.
=	=	=
16FKL	4b- 4dd 4ff 4bb-	f
8B- 8d 8f	.	.
16B-Jk 16d 16f	.	.
16DKL	16r	.
8B- 8d 8f	8ffL	.
16B-Jk 16d 16f	16ggJk	.
=	=	=
16CKL	4a 4cc	.
8A 8c 8e- 8f	.	.
16AJk 16c 16e- 16f	.	.
16FKL	16r	.
8A 8c 8e- 8f	8ee-L	.
16AJk 16c 16e- 16f	16ffJk	.
!!linebreak:original
=	=	=
16FFKL	4f	.
8A 8c 8e- 8f	.	.
16AJk 16c 16e- 16f	.	.
16FKL	16r	.
8A 8c 8e- 8f	8ee-L	.
16AJk 16c 16e- 16f	16ffJk	.
=	=	=
16BB-KL	4d 4b-	.
8F 8B- 8d	.	.
16FJk 16B- 16d	.	.
8DL	8r	.
8FJ 8B- 8d	8ff	.
=	=	=
16DKL	8.ddL 8.ff 8.bb-	.
8F 8B- 8d	.	.
16FJk 16B- 16d	16aaJk	.
16DKL	16cccKL	.
8F 8B- 8d	8bb-	.
16F#XJk 16B- 16d	16ff#XJk	.
=	=	=
16E-KL	16ccKL 16ee- 16aa	.
8G 8c 8e-	8gg	.
16GJk 16c 16e-	16dddJk	.
8E-L	8fffL	.
8GJ 8c 8e-	8eee-J	.
=	=	=
16FFKL	16ffKL 16bb- 16ddd	.
8F 8B- 8d	8dd 8ff 8bb-	.
16FJk 16B- 16d	16b-Jk 16dd 16gg	.
8FFL	8aL 8ee- 8ff	.
8FJ	8e-J 8f 8a	.
=	=	=
4BB-	4d 4f 4b-	.
8r	8r	.
*F:	*F:	*
8f	8b- 8dd	.
=	=	=
4en	8b-L 8cc	.
.	8ggJ	.
8r	8ggL	.
8f	8b-J 8dd	.
!!linebreak:original
=	=	=
[4en	8b-L 8cc	.
.	8ggJ	.
8e]	8cc	.
8r;	8r;	.
==	==	==
*-	*-	*-
!!!system-decoration: {(s1,s2)}
!!!AGN: Tango
!!!EED: Florian Moldaschl
!!!END: 2025/12/26
!!!ENC: Florian Moldaschl
!!!EEV: 2025/12/26
!!!title: @{OPR}, @{SCT} №@{ONM}